svg/file_document_check.svg

<svg xmlns="http://www.w3.org/2000/svg" viewBox="0 0 24 24"><path d="m23.5 17-5 5-3.5-3.5 1.5-1.5 2 2 3.5-3.5zM6 2c-1.11 0-2 .89-2 2v16c0 1.11.89 2 2 2h7.81c-.53-.91-.81-1.95-.81-3 0-.33.03-.67.08-1H6v-2h7.81c.46-.8 1.1-1.5 1.87-2H6v-2h12v1.08c.33-.05.67-.08 1-.08.34 0 .67.03 1 .08V8l-6-6m-1 1.5L18.5 9H13Z"/></svg>

<svg xmlns="http://www.w3.org/2000/svg" id="mdi-file-document-check" viewBox="0 0 24 24"><path d="M23.5 17L18.5 22L15 18.5L16.5 17L18.5 19L22 15.5L23.5 17M6 2C4.89 2 4 2.89 4 4V20C4 21.11 4.89 22 6 22H13.81C13.28 21.09 13 20.05 13 19C13 18.67 13.03 18.33 13.08 18H6V16H13.81C14.27 15.2 14.91 14.5 15.68 14H6V12H18V13.08C18.33 13.03 18.67 13 19 13C19.34 13 19.67 13.03 20 13.08V8L14 2M13 3.5L18.5 9H13Z" /></svg>
